packages/kaspersky-hexa-ui-icons/src/iconsSVGs/16/RenRen.svg

<svg width="16" height="16" viewBox="0 0 16 16" fill="none" xmlns="http://www.w3.org/2000/svg">
<path d="M3.41649 11.8552C2.53264 10.8018 1.99976 9.43946 1.99976 7.9517C1.99976 4.98359 4.12066 2.51483 6.91808 2.00142V5.9794C6.91808 7.28269 6.53801 8.55722 5.82513 9.64449L5.74665 9.76419C5.16307 10.6543 4.35964 11.3747 3.41649 11.8552Z" fill="black"/>
<path d="M9.07364 2V5.9794C9.07364 7.28269 9.45372 8.55722 10.1666 9.64449L10.2451 9.76419C10.8298 10.656 11.6352 11.3775 12.5807 11.858C13.4659 10.8042 13.9998 9.44077 13.9998 7.9517C13.9998 4.98083 11.8749 2.51025 9.07364 2Z" fill="black"/>
<path d="M10.8304 13.286L10.3415 12.9019C9.25226 12.0463 8.43502 10.8884 7.99018 9.57082C7.55434 10.8868 6.74272 12.0437 5.65708 12.8965L5.16451 13.2835C6.00881 13.7406 6.97424 14 7.99976 14C9.02341 14 9.98718 13.7416 10.8304 13.286Z" fill="black"/>
</svg>

<svg xmlns="http://www.w3.org/2000/svg" width="16" height="16" fill="none" viewBox="0 0 16 16"><path fill="#000" d="M3.417 11.855C2.533 10.802 2 9.439 2 7.952c0-2.968 2.121-5.437 4.918-5.95V5.98c0 1.303-.38 2.578-1.093 3.665l-.078.12a6.1 6.1 0 0 1-2.33 2.091M9.074 2v3.979c0 1.303.38 2.578 1.093 3.665l.079.12a6.1 6.1 0 0 0 2.336 2.094c.885-1.054 1.419-2.417 1.419-3.906 0-2.971-2.125-5.441-4.926-5.952m1.755 11.286-.489-.384A7.14 7.14 0 0 1 7.99 9.571c-.436 1.316-1.247 2.473-2.333 3.326l-.493.387A5.94 5.94 0 0 0 8 14a5.936 5.936 0 0 0 2.831-.714"/></svg>
